!!!COM: Anon.
!!!OTL: Celorum Porta
!!!SCA: Folio 331'-332
!!!YOR: from 'Thirty-Five Conductus for Two and Three Voices', pp.105-108
!!!YOR: edited by Janet Knapp, Collegium Musicum No. 6, Yale University (1965)
!!!YOR: from the School of Notre Dame; circa 1170-1240
!!!YOO: Yale University
!!!YOY: 1965
**kern	**kern
*M6/8	*M6/8
=1	=1
4.F	4.f
4.r	4e
.	8d
=2	=2
4.F	4.c
4.G	4.r
=3	=3
4.F	4c
.	8d
4.E	4e
.	8d
=4	=4
4F	4.c
8G	.
4A	4.r
8G	.
=5	=5
4.F	4.c
4.r	4.B
=6	=6
4.A	4.A
4.G	4.r
=7	=7
8c	4.F
8B	.
8A	.
4.G	4.G
=8	=8
4.A	4.F
4.G	4.E
=9	=9
4.F	4c
.	8B
4.r	4B
.	8A
=10	=10
4.G	4.G
4.A	4.r
=11	=11
4G	4.G
8A	.
4B-	4.F
8A	.
=12	=12
4.G	4.G
4.c	4.F
=13	=13
4.F	4.c
4.r	4B
.	8A
=14	=14
4.G	4.G
4.r	4A
.	8G
=15	=15
4.A	4.F
4.r	4.G
=16	=16
8c	4.F
8B	.
8A	.
4G	4.r
8G	.
=17	=17
4A	4c
8G	8d
4F	8c
.	8B
8F	8A
=18	=18
4G	4.G
8F	.
4E	4.A
8F	.
=19	=19
4.G	4G
.	8E
4.A	4.F
=20	=20
4.G	4.G
4.r	4.r
=21	=21
4A	4.A
8B	.
4c	4F
8d	8G
=22	=22
8c	8A
8B	8B
8A	8c
8G	4d
8F	.
8E	8e
=23	=23
4F	4c
8G	8B
4.A	4A
.	8c
=24	=24
4.G	4.B
4A	4A
8r	8r
=25	=25
4B	4d
8c	8e
4B	4d
8A	8B
=26	=26
4G	4G
8A	8c
4G	4B
8F	8A
=27	=27
4.E	4.G
4.F	4.A
=28	=28
4.G	4.G
4.r	4.r
=29	=29
4.A	4.c
4A	4c
8G	8B
=30	=30
4.F	4.A
4.E	4.G
=31	=31
8F	4.F
8G	.
8A	.
4G	4.E
8G	.
=32	=32
4.F	4.F
4.r	4.r
=33	=33
4.c	4c
.	8d
4c	4e
8B	8d
=34	=34
2.A	8e
.	16e
.	16d
.	16c
.	16B
.	4.A
=35	=35
2.G	4.B
.	8c
.	8c
.	8B
=36	=36
4.F	4.A
4.r	4.r
=37	=37
[2.G	4.d
.	4d
.	8e
=38	=38
2.G]	16d
.	16c
.	8B
.	8A
.	4.G
=39	=39
2.A	4F
.	8E
.	4.F
=40	=40
4.G	4.G
4.r	4.r
=41	=41
[2.F	4.c
.	4c
.	8d
=42	=42
2.F]	16c
.	16B
.	8A
.	8G
.	4.F
=43	=43
2.G	2.E
=44	=44
4.F	4.F
4.r	4.r
=45	=45
4.c	4.c
4B	4.r
8A	.
=46	=46
4.G	4d
.	8e
4.E	8f
.	8e
.	8d
=47	=47
4.F	4c
.	8B
4.F	4.A
=48	=48
4.G	4.G
4.r	4.r
=49	=49
4.c	4.F
4B	4.r
8A	.
=50	=50
4.G	4.G
4.E	4A
.	8G
=51	=51
4.F	4.F
4.G	4.E
=52	=52
4F	4F
8r	8r
[4.F	16c
.	16B
.	8A
.	8G
=53	=53
4.F]	4.F
8G	4.E
8A	.
8G	.
=54	=54
4.F	4.F
4.r	4.r
=55	=55
4e	4c
8f	8B
4e	4A
8d	8G
=56	=56
4c	4e
8B	8f
4A	4e
8r	8d
=57	=57
4d	4B
8e	8A
4d	4G
8c	8A
=58	=58
4B	4d
8A	8e
4G	4d
8r	8c
=59	=59
4c	4A
8d	8G
4c	4F
8B	8G
=60	=60
4A	4A
8G	8B
4.F	4c
.	8d
=61	=61
4.E	16e
.	16d
.	16c
.	16B
.	16A
.	16G
4.F	4.F
=62	=62
4.G	4.E
4F	4F
8r	8r
=63	=63
4.A	4c
.	8e
4.G	4d
.	8e
=64	=64
4A	4A
8G	8B
8F	8c
8E	8B
8F	8A
=65	=65
4.G	4G
.	8E
4.A	4.F
=66	=66
4.G	4.G
4.r	4.r
=67	=67
4.A	4c
.	8e
4.G	4d
.	8e
=68	=68
4A	4A
8G	8B
8F	8c
8E	8B
8F	8A
=69	=69
4.G	4G
.	8F
4.G	4F
.	8E
=70	=70
4.F	4.F
4.r	4.r
=71	=71
4A	4e
8B	8d
4c	4c
8d	8B
=72	=72
4e	4A
8d	8r
8c	4A
8B	.
8A	8F
=73	=73
4G	4G
8r	8A
4G	4B
8F	8A
=74	=74
4.G	4.G
4.r	4.r
=75	=75
4A	4c
8G	8d
4F	8f
.	8e
8G	8d
=76	=76
4F	4c
8r	8B
4F	4A
8r	8G
=77	=77
4F	4.F
8G	.
4A	4F
8G	8E
=78	=78
4.F	4.F
4.r	4.r
=79	=79
4c	4e
8d	8f
4c	4e
8B	8d
=80	=80
4.c	4c
.	8d
4A	4e
8B	8r
=81	=81
4c	4e
8d	8f
4c	4e
8B	8f
=82	=82
4.c	4.d
4A	4e
8r	8r
=83	=83
4d	4.d
8d	.
8c	4e
8B	.
8A	8c
=84	=84
4.G	4.d
4.B	4B
.	8A
=85	=85
4d	4G
8d	8r
8c	4A
8B	.
8A	8F
=86	=86
4.G	4.G
4.r	4.r
=87	=87
4c	4A
8d	8G
4c	4F
8B	8G
=88	=88
4.c	4.A
4F	4A
8r	8r
=89	=89
4G	4G
8A	8F
4.G	4F
.	8E
=90	=90
4.F	4.F
4.r	4.r
=91	=91
4.A	8c
.	8d
.	8e
4A	8f
.	8e
8G	8f
=92	=92
2.F	{24f
.	24e
.	24d
.	16c
.	16B
.	16A
.	16G}
.	4.F
=93	=93
4.G	4.E
4F	4F
8r	8r
=94	=94
4.A	4.c
4.G	4d
.	8e
=95	=95
4.F	8f
.	8e
.	8d
4.r	4.c
=96	=96
4.F	4A
.	8F
4.E	4.G
=97	=97
4.F	4.F
4.r	4.r
=98	=98
4.c	4.A
4d	4.G
8e	.
=99	=99
8f	4.F
8e	.
8d	.
4.c	4.r
=100	=100
4A	4.F
8F	.
4.G	4.E
=101	=101
4.F	4.F
4.r	4.r
=102	=102
4.c	4e
.	8f
4c	4e
8B	8d
=103	=103
4.A	4.c
4.G	4.B
=104	=104
4.A	4c
.	8A
4.B	4A
.	8G
=105	=105
4.A	4.A
4.r	4.r
=106	=106
4.B	4d
.	8e
4B	4d
8A	8B
=107	=107
4.G	4.G
4.F	4.A
=108	=108
4.G	8B
.	8A
.	8G
4.A	4.F
=109	=109
4.G	4.G
4.r	4.r
=110	=110
4.A	4c
.	8d
4A	4c
8G	8B
=111	=111
4.F	4.A
4.E	4.G
=112	=112
4.F	4A
.	8G
4.G	8F
.	8F
.	8E
=113	=113
4.F	4.F
4.r	4.r
=114	=114
4.A	4.c
4.G	4d
.	8e
=115	=115
4.F	8f
.	8e
.	8d
4.r	4c
.	8r
=116	=116
4.G	4.B
4A	4c
8G	8B
=117	=117
8F	4A
8E	.
8F	8r
4G	4.G
8G	.
=118	=118
4F	4A
8E	8G
4F	4F
8G	8r
=119	=119
4A	4F
8G	8E
4F	4F
8r	8r
=120	=120
4.c	4c
.	8e
4.d	4d
.	8e
=121	=121
4c	4A
8B	8G
4A	4A
8r	8r
=122	=122
4.G	4B
.	8G
4.A	8c
.	8B
.	8A
=123	=123
4G	4G
8F	8r
4.E	4A
.	8G
=124	=124
4F	4.F
8r	.
4.G	4.E
=125	=125
4.F	4.F
4.r	4.r
=126	=126
4d	4f
8c	8g
4B	4f
8A	8e
=127	=127
8G	8d
8F	8c
8G	8d
4A	4c
8r	8r
=128	=128
4d	4f
8c	8g
8B	4f
8A	.
8A	8e
=129	=129
8G	8d
8F	8c
8G	8d
4A	4c
8r	8r
=130	=130
4G	4B
8F	8r
4E	4c
8r	8B
=131	=131
4F	8A
.	8G
8r	8F
4E	4G
8r	8r
=132	=132
4A	4.A
8G	.
4F	4B-
8r	8A
=133	=133
4G	8G
.	8F
8r	8E
4F	4F
8r	8r
=134	=134
4G	4.G
8F	.
4E	4A
8r	8G
=135	=135
4F	4.F
8G	.
4.G	4.E
=136	=136
4.F	4.F
4.r	4.r
=137	=137
4.A	4.c
4.G	4.r
=138	=138
4.F	4c
.	8B
4.r	4A
.	8G
=139	=139
4.F	4.F
4.G	4.E
=140	=140
4.F	4.F
4.r	4.G
=141	=141
4c	4.F
8d	.
4c	4.r
8B	.
=142	=142
4.A	4A
.	8B
4.G	4c
.	8B
=143	=143
4A	4.A
8B	.
4c	4.G
8B	.
=144	=144
4.A	4.A
4.r	4.G
=145	=145
4c	4.F
8B	.
4A	4.r
8G	.
=146	=146
4.F	4c
.	8B
4.E	4A
.	8G
=147	=147
4c	4.F
8B	.
4B	4.E
8A	.
=148	=148
4G	4.G
8E	.
4.F	4.A
=149	=149
4.G	4.G
4.r	4.r
=150	=150
4.A	4c
.	8A
4.G	4B
.	8G
=151	=151
4A	4c
8G	8B
4F	4A
8E	8G
=152	=152
4.F	4.F
4.G	4.E
=153	=153
4.F	4.F
4.r	4.r
=154	=154
4.c	4.e
4.r	4f
.	8e
=155	=155
4.B	4.d
4.r	4e
.	8d
=156	=156
4.A	4.c
4.G	4.B
=157	=157
4.A	4.A
4.r	4.r
=158	=158
4.B	4d
.	8e
4.r	8d
.	8c
.	8B
=159	=159
4.A	4c
.	8d
4.r	8c
.	8B
.	8A
=160	=160
4.G	4.G
4.F	4.A
=161	=161
4.G	4.G
4.r	4.r
=162	=162
4.A	4.c
4.r	4d
.	8c
=163	=163
4.G	4.B
4.r	4c
.	8B
=164	=164
4.F	4.A
4.E	4.G
=165	=165
4.F	4.F
4.r	4.r
=166	=166
4.A	8c
.	8d
.	8e
4A	8f
.	8e
8G	8f
=167	=167
2.F	{24f
.	24e
.	24d
.	16c
.	16B
.	16A
.	16G}
.	4.F
=168	=168
2.E	4.G
.	8A
.	8A
.	8G
=169	=169
4.F	4.F
4.G	4.E
=170	=170
4.F;	4.F;
4.r	4.r
==	==
*-	*-
!!!ENC: David Huron
!!!YEC: Copyright 1987, David Huron
!!!EEV: 1.0
